X:1
T:To Canaan’s Land I’m on My Way
T:William Matthew Golden, 1914
T:To Canaan’s Land I’m on My Way
T:Public Domain
T:Public Domain
C:William Matthew Golden, 1914
Z:Public Domain
%%score ( 1 2 ) ( 3 4 )
L:1/8
M:4/4
K:F
V:1 treble 
V:2 treble 
V:3 bass 
V:4 bass 
V:1
 [CF]2 | [FA]2 [FG]2 F2 [FA]2 | [Ac]2 [Bd]2 [Ac]2 [Fc]>[EB] | F2 F2 [FA]2 [DG]>[FA] | [EG]6 [CF]2 | %5
w: 1.~To|Ca- naan’s land I’m|my way, Where the soul~of|man ne- ver dies; My|est night|
w: 2.~A|rose is bloom- ing|for me, Where the soul~of|man ne- ver dies; And|will spend|
w: 3.~A|love light beams a-|the foam, Where the soul~of|man ne- ver dies; It|to light|
w: 4.~My|life will end in|less sleep, Where the soul~of|man ne- ver dies; And|er- last-|
w: 5.~I’m|on my way to|fair land, Where the soul~of|man ne- ver dies; Where|will be|
 [FA]2 [FG]2 F2 [FA]2 | [Fc]2 [Fd]2 [Fc]2 [Fc]>[EB] | F2 F2 [FA]2 [EG]>[EG] | F6 || %9
w: will turn to day,|Where the soul~of man ne-|ver dies. * * *||
w: e- ter- ni- ty,|Where the soul~of man ne-|ver dies. * * *||
w: the shores of home,|Where the soul~of man ne-|ver dies; Dear friends,~there’ll~be no|fare-|
w: ing joys I’ll reap,|Where the soul~of man ne-|ver dies; * * *||
w: no part- ing hand,|Where the soul~of man ne-|ver dies; * * *||
"^Refrain" [CF]2 | F2 F2 [FA]2 [Fd]2 | (F2 EG) [Fc]2 [CF]2 | F2 G2 [FA]2 [DF]2 | [EG]6 [CF]2 | %14
w: |||||
w: |||||
w: There’ll|be~no tear dimmed eyes,|all~is * * peace~and joy|love, And the soul~of|ne- ver|
w: |||||
w: |||||
 F2 F2 [FA]2 [Fd]2 | F2 E2 [Fc]2 [Fc]>[EB] | F2 F2 [FA]2 [EG]>[EG] | [CF]6 |] %18
w: ||||
w: ||||
w: dies. * * *||||
w: ||||
w: ||||
V:2
 x2 | x4 F2 x2 | x8 | A4- x4 | x8 | x8 | x8 | A4- x4 | F6 || x2 | A4- x4 | c4 x4 | A4- x4 | x8 | %14
w: |on||dark-|||||||||||
w: |there||I|||||||||||
w: |cross||shines||||sad|wells,||Where|and|man||
w: |death-||ev-|||||||||||
w: |that||there|||||||||||
 A4- x4 | c4- x4 | A4- x4 | x6 |] %18
w: ||||
w: ||||
w: ||||
w: ||||
w: ||||
V:3
 [F,A,]2 | [F,C]2 [F,B,]2 [F,A,]2 [F,C]2 | [F,F]2 [F,F]2 [F,F]2 [A,C]>[G,C] | %3
 [F,C]2 [D,D]2 [F,C]2 [G,=B,]>[G,B,] | [C,C]6 [F,A,]2 | [F,C]2 [F,B,]2 [F,A,]2 [F,C]2 | %6
 [F,A,]2 [F,B,]2 [F,A,]2 [A,C]>[G,C] | [F,C]2 [D,=B,]2 [C,C]2 [C,_B,]>[C,B,] | [F,,F,A,]6 || %9
 [F,A,]2 | [F,C]2 [C,C]2 [F,C]2 [F,B,]2 | ([F,A,]2 G,B,) [F,A,]2 [F,A,]2 | %12
 [F,C]2 [E,^C]2 [D,D]2 [D,=B,]2 | [C,C]6 [F,A,]2 | [F,C]2 [C,C]2 [F,C]2 [F,B,]2 | %15
 [F,A,]2 [G,B,]2 [A,C]2 [A,C]>[G,C] | [F,C]2 [D,=B,]2 [C,C]2 [C,_B,]>[C,B,] | [F,,F,A,]6 |] %18
V:4
 x2 | x8 | x8 | x8 | x8 | x8 | x8 | x8 | x6 || x2 | x8 | x2 C,2 x4 | x8 | x8 | x8 | x8 | x8 | x6 |] %18

